components/Icon/icons/moon.svg

<svg width="50" height="50" viewBox="0 0 50 50" fill="none" xmlns="http://www.w3.org/2000/svg">
<path d="M25 24.5979C22.3787 21.9755 20.5936 18.635 19.8701 14.9985C19.1467 11.3619 19.5174 7.59255 20.9355 4.16663C16.8923 4.96257 13.1784 6.94645 10.2688 9.86454C2.13338 18 2.13338 31.1916 10.2688 39.327C18.4063 47.4645 31.5959 47.4625 39.7334 39.327C42.6507 36.4177 44.6345 32.7047 45.4313 28.6625C42.0053 30.0803 38.236 30.4508 34.5995 29.7274C30.963 29.004 27.6225 27.2189 25 24.5979V24.5979Z" fill="black"/>
</svg>

<svg xmlns="http://www.w3.org/2000/svg" 
viewBox="0 0 50 50" width="100%" height="100%" fill="none"  xmlns:v="https://vecta.io/nano"><path d="M25 24.598c-2.621-2.622-4.406-5.963-5.13-9.599s-.353-7.406 1.065-10.832c-4.043.796-7.757 2.78-10.667 5.698-8.135 8.135-8.135 21.327 0 29.462s21.327 8.136 29.465 0a20.72 20.72 0 0 0 5.698-10.664c-3.426 1.418-7.195 1.788-10.832 1.065S27.623 27.219 25 24.598h0z" fill="#000"/></svg>
